svg/medication_outline.svg

<svg xmlns="http://www.w3.org/2000/svg" viewBox="0 0 24 24"><path d="M10.5 15H8v-3h2.5V9.5h3V12H16v3h-2.5v2.5h-3zM19 8v11c0 1.1-.9 2-2 2H7c-1.1 0-2-.9-2-2V8c0-1.1.9-2 2-2h10c1.1 0 2 .9 2 2m-2 0H7v11h10zm1-5H6v2h12z"/></svg>

<svg xmlns="http://www.w3.org/2000/svg" id="mdi-medication-outline" viewBox="0 0 24 24"><path d="M10.5 15H8V12H10.5V9.5H13.5V12H16V15H13.5V17.5H10.5V15M19 8V19C19 20.1 18.1 21 17 21H7C5.9 21 5 20.1 5 19V8C5 6.9 5.9 6 7 6H17C18.1 6 19 6.9 19 8M17 8H7V19H17V8M18 3H6V5H18V3" /></svg>
